assets/icons/24px/hammer.svg

<svg width="24" height="24" viewBox="0 0 24 24" fill="none" xmlns="http://www.w3.org/2000/svg">
<path d="M18.6353 7.14113L18.871 7.27905C19.3353 7.55068 19.4943 8.15228 19.2263 8.62276L16.842 12.6415C16.5739 13.112 15.9803 13.2732 15.5161 13.0016L15.2804 12.8636C14.642 12.4901 14.2123 11.8359 14.1185 11.0949C14.0508 10.5599 13.4898 10.2456 13.0068 10.4722L12.3985 10.7575C12.1488 10.8746 11.8585 10.8614 11.6202 10.7219L8.8813 9.26912C8.53505 9.06652 8.37601 8.64592 8.5 8.26069L8.76629 7.14965C8.84895 6.89283 8.74451 6.60755 8.5 6.50002C6.54797 5.64153 4 6.48235 4 5C4 3.51766 8.91944 1.60586 12.1868 3.51768L14.9761 5C15.2144 5.13944 15.3699 5.38702 15.3947 5.66476L15.455 6.34134C15.5029 6.87853 16.052 7.21381 16.543 7.00573C17.2231 6.7175 17.9969 6.76758 18.6353 7.14113Z" stroke="white" stroke-width="2"/>
<path d="M8.5 9.50002L3.4928 18.7404C3.22748 19.1524 3.35787 19.7056 3.77825 19.9516L5.32232 20.8551C5.74269 21.1011 6.28065 20.9389 6.50001 20.5L11 11" stroke="white" stroke-width="2"/>
</svg>

<svg width="24" height="24" fill="none" xmlns="http://www.w3.org/2000/svg"><path d="M18.635 7.141l.236.138a.99.99 0 0 1 .355 1.344l-2.384 4.019a.964.964 0 0 1-1.326.36l-.236-.138a2.395 2.395 0 0 1-1.162-1.77.787.787 0 0 0-1.111-.622l-.608.286a.836.836 0 0 1-.779-.036L8.881 9.269A.863.863 0 0 1 8.5 8.261l.266-1.111c.083-.257-.021-.542-.266-.65C6.548 5.642 4 6.482 4 5s4.92-3.394 8.187-1.482L14.977 5c.237.14.393.387.418.665l.06.676a.787.787 0 0 0 1.088.665 2.334 2.334 0 0 1 2.092.135zM8.5 9.5l-5.007 9.24a.864.864 0 0 0 .285 1.212l1.544.903A.84.84 0 0 0 6.5 20.5L11 11" stroke="#fff" stroke-width="2"/></svg>
